Catalina-light/actions/16/view-calendar-special-occasion.svg

<svg xmlns="http://www.w3.org/2000/svg" width="16" height="16" viewBox="0 0 16 16">
 <defs>
  <style id="current-color-scheme" type="text/css">
   .ColorScheme-Text { color:#5c616c; } .ColorScheme-Highlight { color:#5294e2; }
  </style>
 </defs>
 <path style="fill:currentColor" class="ColorScheme-Text" d="M 3 1 C 0.75 1 1 3 1 3 L 1 15 L 15 15 L 15 3 C 15 1 13 1 13 1 L 3 1 z M 3 3 L 13 3 L 13 3.1640625 L 6.9707031 10.0625 L 4.7207031 7.8125 C 4.3444031 7.4361 3.6596031 7.4362 3.2832031 7.8125 C 3.0950031 8.0007 3 8.26595 3 8.53125 C 3 8.79665 3.0950031 9.0618 3.2832031 9.25 L 6.2832031 12.25 L 7.0644531 13 L 7.7519531 12.1875 L 13 6.1894531 L 13 13 L 7.0644531 13 L 3 13 L 3 8.53125 L 3 3 z"/>
</svg>

<svg width="16" height="16" viewBox="0 0 16 16" xmlns="http://www.w3.org/2000/svg">
<defs>
<style id="current-color-scheme" type="text/css">.ColorScheme-Text { color:#5c616c; } .ColorScheme-Highlight { color:#5294e2; }</style>
</defs>
<path class="ColorScheme-Text" d="m3 1c-2.25 0-2 2-2 2v12h14v-12c0-2-2-2-2-2h-10zm0 2h10v0.16406l-6.0293 6.8984-2.25-2.25c-0.3763-0.3764-1.0611-0.3763-1.4375 0-0.1882 0.1882-0.2832 0.45345-0.2832 0.71875 0 0.2654 0.095003 0.53055 0.2832 0.71875l3 3 0.78125 0.75 0.6875-0.8125 5.248-5.998v6.8105h-10v-10z" fill="currentColor"/>
</svg>
